images/companyLogos/nextsmartship-card.svg

<svg width="140" height="21" viewBox="0 0 140 21" fill="none" xmlns="http://www.w3.org/2000/svg">
<path d="M31.9667 5.38403L29.8717 15.8617L27.8815 15.8617L23.9746 9.3056L22.6566 15.8617L20.2609 15.8617L22.3559 5.38403L24.3624 5.38403L28.2692 11.9549L29.571 5.38403L31.9667 5.38403Z" fill="#0554F2"/>
<path d="M40.8153 12.4634L34.6484 12.4634C34.7236 13.5558 35.3973 14.1102 36.7286 14.1102C37.5512 14.1102 38.3296 13.8404 38.884 13.3612L39.857 14.9033C38.9297 15.6523 37.7163 15.981 36.4897 15.981C33.9746 15.981 32.3736 14.5584 32.3736 12.3735C32.3736 9.6785 34.3196 7.68823 37.1193 7.68823C39.4692 7.68823 40.9509 9.07995 40.9509 11.2353C40.9494 11.6702 40.8905 12.0889 40.8153 12.4634ZM34.812 11.1012L38.8088 11.1012C38.8088 10.0382 38.0908 9.43967 37.0131 9.43967C35.8897 9.43967 35.1275 10.0987 34.812 11.1012Z" fill="#0554F2"/>
<path d="M46.9542 11.8353L49.1995 15.8616L46.7301 15.8616L45.4121 13.3922L43.0916 15.8616L40.4276 15.8616L44.4538 11.7307L42.3131 7.80908L44.7383 7.80908L46.0106 10.1738L48.2559 7.80908L50.83 7.80908L46.9542 11.8353Z" fill="#0554F2"/>
<path d="M53.9953 13.0179C53.9658 13.1373 53.9658 13.2419 53.9658 13.3466C53.9658 13.8405 54.2356 14.125 54.8194 14.125C55.1334 14.125 55.4637 14.0204 55.763 13.8405L56.1079 15.502C55.5241 15.8617 54.8061 15.9812 54.1029 15.9812C52.6065 15.9812 51.5878 15.1423 51.5878 13.7358C51.5878 13.5117 51.6188 13.2714 51.663 13.0326L52.3058 9.78478L51.063 9.78478L51.4227 7.98764L52.6655 7.98764L53.0547 6.02686L55.39 6.02686L55.0008 7.98764L57.0072 7.98764L56.6475 9.78478L54.6396 9.78478L53.9953 13.0179Z" fill="#0554F2"/>
<path d="M56.9998 14.8739L57.9876 13.003C58.9459 13.7062 60.2035 14.0954 61.4448 14.0954C62.7775 14.0954 63.6149 13.6311 63.6149 12.8674C63.6149 11.1911 58.421 12.089 58.421 8.7512C58.421 6.59582 60.3066 5.2041 63.211 5.2041C64.6174 5.2041 65.9207 5.51812 66.8333 6.10193L65.9207 7.95804C65.1275 7.41846 64.1088 7.15014 63.0768 7.15014C61.6704 7.15014 60.8462 7.68973 60.8462 8.43718C60.8315 10.1591 66.0401 9.2613 66.0401 12.4782C66.0401 14.6483 64.1235 16.0415 61.2045 16.0415C59.5002 16.0415 57.8844 15.5329 56.9998 14.8739Z" fill="#0554F2"/>
<path d="M81.5627 10.4127C81.5627 10.7267 81.5318 11.0407 81.458 11.4004L80.575 15.8616L78.2397 15.8616L79.0933 11.5656C79.1375 11.34 79.1537 11.1454 79.1537 10.9508C79.1537 10.1429 78.7203 9.70798 77.8814 9.70798C76.8038 9.70798 76.0548 10.336 75.7703 11.7292L74.9476 15.8601L72.6124 15.8601L73.466 11.5641C73.5117 11.3385 73.5264 11.1439 73.5264 10.9655C73.5264 10.1429 73.0915 9.70799 72.2541 9.70799C71.1617 9.70799 70.4275 10.336 70.1282 11.7587L69.3203 15.8601L66.9851 15.8601L68.5876 7.80765L70.8035 7.80765L70.6236 8.64651C71.3268 8.00225 72.2099 7.68823 73.1534 7.68823C74.2606 7.68823 75.1747 8.13788 75.6229 9.00476C76.4013 8.15115 77.4495 7.68823 78.6908 7.68823C80.4113 7.6897 81.5627 8.63176 81.5627 10.4127Z" fill="#0554F2"/>
<path d="M92.3972 7.80912L90.7961 15.8616L88.5803 15.8616L88.7292 15.0684C88.0864 15.6523 87.2475 15.981 86.2598 15.981C84.3889 15.981 82.7864 14.663 82.7864 12.3735C82.7864 9.66376 84.7472 7.68823 87.2328 7.68823C88.4004 7.68823 89.3277 8.0627 89.8526 8.90009L90.0619 7.80765L92.3972 7.80765L92.3972 7.80912ZM89.344 11.4005C89.344 10.308 88.6702 9.61954 87.5026 9.61954C86.1256 9.61954 85.1379 10.6972 85.1379 12.2688C85.1379 13.3612 85.8116 14.0497 86.9792 14.0497C88.3562 14.0512 89.344 12.972 89.344 11.4005Z" fill="#0554F2"/>
<path d="M99.5268 7.68994L99.1081 9.84533C98.8987 9.83058 98.7631 9.81584 98.5685 9.81584C97.1915 9.81584 96.3084 10.4586 96.0092 11.9712L95.2307 15.8633L92.8955 15.8633L94.498 7.81083L96.7139 7.81083L96.5192 8.76911C97.2357 7.98775 98.2235 7.68994 99.5268 7.68994Z" fill="#0554F2"/>
<path d="M102.798 13.0179C102.769 13.1373 102.769 13.2419 102.769 13.3466C102.769 13.8405 103.038 14.125 103.622 14.125C103.936 14.125 104.267 14.0204 104.566 13.8405L104.911 15.502C104.327 15.8617 103.609 15.9812 102.906 15.9812C101.409 15.9812 100.391 15.1423 100.391 13.7358C100.391 13.5117 100.422 13.2714 100.466 13.0326L101.109 9.78478L99.8658 9.78478L100.226 7.98764L101.468 7.98764L101.858 6.02686L104.193 6.02686L103.804 7.98764L105.81 7.98764L105.45 9.78478L103.444 9.78478L102.798 13.0179Z" fill="#0554F2"/>
<path d="M105.804 14.8739L106.792 13.003C107.75 13.7062 109.008 14.0954 110.249 14.0954C111.582 14.0954 112.419 13.6311 112.419 12.8674C112.419 11.1911 107.225 12.089 107.225 8.7512C107.225 6.59582 109.111 5.2041 112.015 5.2041C113.422 5.2041 114.725 5.51812 115.638 6.10193L114.725 7.95804C113.932 7.41846 112.913 7.15014 111.881 7.15014C110.475 7.15014 109.651 7.68973 109.651 8.43718C109.636 10.1591 114.844 9.2613 114.844 12.4782C114.844 14.6483 112.928 16.0415 110.009 16.0415C108.303 16.0415 106.687 15.5329 105.804 14.8739Z" fill="#0554F2"/>
<path d="M125.008 10.4436C125.008 10.7429 124.977 11.0569 124.903 11.4019L124.006 15.863L121.67 15.863L122.539 11.5523C122.583 11.3577 122.599 11.1631 122.599 10.9979C122.599 10.1753 122.15 9.71089 121.222 9.71089C120.04 9.71089 119.216 10.3699 118.933 11.7764L118.125 15.863L115.79 15.863L118.005 4.75586L120.341 4.75586L119.592 8.54327C120.295 7.95946 121.163 7.68966 122.076 7.68966C123.826 7.68966 125.008 8.64647 125.008 10.4436Z" fill="#0554F2"/>
<path d="M127.567 7.80924L129.888 7.80924L128.287 15.8617L125.966 15.8617L127.567 7.80924ZM127.762 5.47399C127.762 4.69557 128.375 4.08228 129.304 4.08228C130.127 4.08228 130.681 4.5909 130.681 5.2499C130.681 6.10351 130.053 6.68732 129.124 6.68732C128.302 6.68585 127.762 6.14773 127.762 5.47399Z" fill="#0554F2"/>
<path d="M140 11.296C140 14.0057 138.039 15.9813 135.539 15.9813C134.371 15.9813 133.459 15.6068 132.934 14.7841L132.141 18.7662L129.805 18.7662L131.992 7.80936L134.208 7.80936L134.044 8.60252C134.687 8.0187 135.526 7.68994 136.513 7.68994C138.383 7.68994 140 9.00647 140 11.296ZM137.635 11.4007C137.635 10.3082 136.962 9.61977 135.794 9.61977C134.432 9.61977 133.444 10.6975 133.444 12.269C133.444 13.3615 134.103 14.05 135.271 14.05C136.648 14.0514 137.635 12.9723 137.635 11.4007Z" fill="#0554F2"/>
<path d="M15.7261 0.0516004C15.7261 0.0722403 15.7143 0.0884584 15.6981 0.0958268C15.6951 0.0973041 15.6922 0.0973039 15.6907 0.0987738C15.6892 0.0987738 15.6892 0.0987738 15.6877 0.0987738C15.3723 0.206397 15.098 0.400998 14.8887 0.651627C14.8857 0.657525 14.8813 0.660472 14.8798 0.663419L14.7855 0.790204C14.7855 0.793151 14.7825 0.796102 14.7811 0.799049L8.40778 9.45893L8.39893 9.46925L8.36502 9.51496C8.32227 9.58425 8.29721 9.66386 8.29721 9.75231C8.29721 9.99852 8.49623 10.1975 8.74244 10.1975L14.4051 10.1975C14.8666 10.1975 15.241 10.572 15.241 11.0335C15.241 11.203 15.1909 11.3593 15.1054 11.4905C15.0877 11.517 15.0685 11.5421 15.0464 11.5686L9.06383 19.6668L9.03877 19.7007C8.99159 19.7715 8.96211 19.857 8.96211 19.9499C8.96211 20.0943 9.03139 20.2241 9.13902 20.3052L9.1405 20.3066C9.1405 20.3066 9.14197 20.3066 9.14197 20.3081C9.15377 20.317 9.16114 20.3317 9.16114 20.3465C9.16114 20.3715 9.14197 20.3922 9.11691 20.3951L0.0442288 20.3951C0.0191676 20.3936 8.80974e-08 20.3715 8.79891e-08 20.3465C8.79062e-08 20.3273 0.0117946 20.3096 0.0280116 20.3022C0.0324345 20.3007 0.0353841 20.2993 0.0383326 20.2978C0.349404 20.1917 0.622147 20 0.828543 19.7538C0.831492 19.7508 0.834439 19.7464 0.837389 19.7449L0.939114 19.6064C0.940588 19.6049 0.942063 19.6034 0.94501 19.599L7.32566 10.9258L7.35073 10.8905C7.39791 10.8197 7.42739 10.7342 7.42739 10.6428C7.42739 10.3966 7.22836 10.1976 6.98216 10.1976L1.32242 10.1976C0.860974 10.1976 0.486509 9.82309 0.486509 9.36164C0.486509 9.19063 0.538109 9.02993 0.625091 8.89872C0.641308 8.87366 0.658997 8.85007 0.676691 8.82795L6.65929 0.728292L6.68436 0.694382C6.73153 0.623615 6.76102 0.538108 6.76102 0.445229C6.76102 0.299279 6.69173 0.171018 6.58411 0.0899285L6.58263 0.0884528C6.57084 0.0796086 6.56199 0.0648631 6.56199 0.048649C6.56199 0.0221121 6.58263 0.00146982 6.60917 -2.85816e-08L15.6789 -6.78041e-08C15.7054 0.00294848 15.7261 0.0250635 15.7261 0.0516004Z" fill="#0554F2"/>
</svg>

<svg fill="none" xmlns="http://www.w3.org/2000/svg" viewBox="0 0 140 21">
  <path
    d="m31.967 5.384-2.095 10.478h-1.99l-3.907-6.556-1.318 6.556H20.26l2.095-10.478h2.006l3.907 6.57 1.302-6.57h2.396ZM40.815 12.463h-6.167c.076 1.093.75 1.647 2.08 1.647.823 0 1.602-.27 2.156-.749l.973 1.542c-.927.75-2.14 1.078-3.367 1.078-2.515 0-4.116-1.423-4.116-3.607 0-2.696 1.946-4.686 4.745-4.686 2.35 0 3.832 1.392 3.832 3.547-.002.435-.06.854-.136 1.228Zm-6.003-1.362h3.997c0-1.063-.718-1.661-1.796-1.661-1.123 0-1.886.659-2.201 1.661ZM46.954 11.835l2.245 4.027H46.73l-1.318-2.47-2.32 2.47h-2.664l4.026-4.131-2.14-3.922h2.424l1.273 2.365 2.245-2.365h2.574l-3.876 4.026ZM53.995 13.018c-.03.12-.03.224-.03.329 0 .494.27.778.854.778.314 0 .645-.105.944-.284l.345 1.661c-.584.36-1.302.48-2.005.48-1.497 0-2.515-.84-2.515-2.246 0-.224.03-.465.075-.703l.643-3.248h-1.243l.36-1.797h1.242l.39-1.961h2.335L55 7.987h2.007l-.36 1.798H54.64l-.645 3.233ZM57 14.874l.988-1.871c.958.703 2.215 1.092 3.457 1.092 1.333 0 2.17-.464 2.17-1.228 0-1.676-5.194-.778-5.194-4.116 0-2.155 1.886-3.547 4.79-3.547 1.406 0 2.71.314 3.622.898l-.912 1.856c-.794-.54-1.812-.808-2.844-.808-1.407 0-2.23.54-2.23 1.287-.016 1.722 5.193.824 5.193 4.041 0 2.17-1.916 3.563-4.836 3.563-1.704 0-3.32-.508-4.204-1.167ZM81.563 10.413a4.8 4.8 0 0 1-.105.987l-.883 4.462H78.24l.853-4.296c.044-.226.06-.42.06-.615 0-.808-.433-1.243-1.272-1.243-1.077 0-1.826.628-2.11 2.021l-.823 4.131h-2.336l.854-4.296c.046-.226.06-.42.06-.598 0-.823-.434-1.258-1.272-1.258-1.092 0-1.827.628-2.126 2.05l-.808 4.102h-2.335l1.603-8.052h2.216l-.18.839c.703-.645 1.586-.959 2.53-.959 1.107 0 2.02.45 2.469 1.317.778-.854 1.826-1.317 3.068-1.317 1.72.002 2.872.944 2.872 2.725ZM92.397 7.81l-1.6 8.052H88.58l.15-.794c-.644.584-1.483.913-2.47.913-1.871 0-3.474-1.318-3.474-3.607 0-2.71 1.961-4.686 4.447-4.686 1.167 0 2.095.375 2.62 1.212l.209-1.092h2.335v.001Zm-3.053 3.59c0-1.092-.674-1.78-1.841-1.78-1.377 0-2.365 1.077-2.365 2.649 0 1.092.674 1.78 1.841 1.78 1.377.002 2.365-1.077 2.365-2.649ZM99.527 7.69l-.419 2.155c-.21-.014-.345-.03-.54-.03-1.376 0-2.26.644-2.559 2.156l-.778 3.892h-2.335l1.602-8.052h2.216l-.195.958c.717-.781 1.704-1.08 3.008-1.08ZM102.798 13.018c-.029.12-.029.224-.029.329 0 .494.269.778.853.778.314 0 .645-.105.944-.284l.345 1.661c-.584.36-1.302.48-2.005.48-1.497 0-2.515-.84-2.515-2.246 0-.224.031-.465.075-.703l.643-3.248h-1.243l.36-1.797h1.242l.39-1.961h2.335l-.389 1.96h2.006l-.36 1.798h-2.006l-.646 3.233ZM105.804 14.874l.988-1.871c.958.703 2.216 1.092 3.457 1.092 1.333 0 2.17-.464 2.17-1.228 0-1.676-5.194-.778-5.194-4.116 0-2.155 1.886-3.547 4.79-3.547 1.407 0 2.71.314 3.623.898l-.913 1.856c-.793-.54-1.812-.808-2.844-.808-1.406 0-2.23.54-2.23 1.287-.015 1.722 5.193.824 5.193 4.041 0 2.17-1.916 3.563-4.835 3.563-1.706 0-3.322-.508-4.205-1.167ZM125.008 10.444c0 .299-.031.613-.105.958l-.897 4.461h-2.336l.869-4.31c.044-.195.06-.39.06-.555 0-.823-.449-1.287-1.377-1.287-1.182 0-2.006.659-2.289 2.065l-.808 4.087h-2.335l2.215-11.107h2.336l-.749 3.787c.703-.584 1.571-.853 2.484-.853 1.75 0 2.932.956 2.932 2.754ZM127.567 7.81h2.321l-1.601 8.052h-2.321l1.601-8.053Zm.195-2.336c0-.778.613-1.392 1.542-1.392.823 0 1.377.509 1.377 1.168 0 .854-.628 1.437-1.557 1.437-.822-.001-1.362-.54-1.362-1.213ZM140 11.296c0 2.71-1.961 4.685-4.461 4.685-1.168 0-2.08-.374-2.605-1.197l-.793 3.982h-2.336l2.187-10.957h2.216l-.164.794c.643-.584 1.482-.913 2.469-.913 1.87 0 3.487 1.316 3.487 3.606Zm-2.365.105c0-1.093-.673-1.781-1.841-1.781-1.362 0-2.35 1.078-2.35 2.649 0 1.092.659 1.781 1.827 1.781 1.377.001 2.364-1.078 2.364-2.65ZM15.726.052c0 .02-.012.036-.028.044-.003.001-.006.001-.007.003h-.003c-.316.107-.59.302-.8.553-.002.006-.007.008-.008.011l-.095.127c0 .003-.002.006-.004.009l-6.373 8.66-.01.01-.033.046a.447.447 0 0 0 .377.682h5.663a.836.836 0 0 1 .641 1.372l-5.982 8.098-.025.034a.445.445 0 0 0 .1.604l.002.002.001.001c.012.009.02.024.02.038a.05.05 0 0 1-.045.05H.044a.048.048 0 0 1-.044-.05.05.05 0 0 1 .028-.044 1.788 1.788 0 0 0 .8-.548c.003-.003.006-.008.01-.01l.101-.138.006-.007 6.38-8.673.026-.036a.445.445 0 0 0-.369-.693h-5.66a.836.836 0 0 1-.645-1.369l5.982-8.1.025-.034a.443.443 0 0 0-.1-.604L6.583.088a.05.05 0 0 1-.021-.04c0-.026.02-.047.047-.048h9.07a.053.053 0 0 1 .047.052Z"
    fill="#0554F2"
  />
</svg>
